images/3234251.svg

<?xml version="1.0" encoding="UTF-8"?>
<svg xmlns="http://www.w3.org/2000/svg" xmlns:xlink="http://www.w3.org/1999/xlink" width="300pt" height="300pt" viewBox="0 0 300 300" version="1.1">
<defs>
<g>
<symbol overflow="visible" id="glyph0-0">
<path style="stroke:none;" d="M 0.453125 1.59375 L 0.453125 -6.34375 L 4.953125 -6.34375 L 4.953125 1.59375 Z M 0.953125 1.09375 L 4.453125 1.09375 L 4.453125 -5.84375 L 0.953125 -5.84375 Z M 0.953125 1.09375 "/>
</symbol>
<symbol overflow="visible" id="glyph0-1">
<path style="stroke:none;" d="M 3.546875 -5.953125 C 2.898438 -5.953125 2.382812 -5.710938 2 -5.234375 C 1.625 -4.753906 1.4375 -4.101562 1.4375 -3.28125 C 1.4375 -2.445312 1.625 -1.789062 2 -1.3125 C 2.382812 -0.832031 2.898438 -0.59375 3.546875 -0.59375 C 4.191406 -0.59375 4.703125 -0.832031 5.078125 -1.3125 C 5.453125 -1.789062 5.640625 -2.445312 5.640625 -3.28125 C 5.640625 -4.101562 5.453125 -4.753906 5.078125 -5.234375 C 4.703125 -5.710938 4.191406 -5.953125 3.546875 -5.953125 Z M 3.546875 -6.6875 C 4.460938 -6.6875 5.195312 -6.375 5.75 -5.75 C 6.300781 -5.132812 6.578125 -4.3125 6.578125 -3.28125 C 6.578125 -2.238281 6.300781 -1.410156 5.75 -0.796875 C 5.195312 -0.179688 4.460938 0.125 3.546875 0.125 C 2.617188 0.125 1.878906 -0.179688 1.328125 -0.796875 C 0.773438 -1.410156 0.5 -2.238281 0.5 -3.28125 C 0.5 -4.3125 0.773438 -5.132812 1.328125 -5.75 C 1.878906 -6.375 2.617188 -6.6875 3.546875 -6.6875 Z M 3.546875 -6.6875 "/>
</symbol>
<symbol overflow="visible" id="glyph0-2">
<path style="stroke:none;" d="M 0.890625 -6.5625 L 2.078125 -6.5625 L 4.984375 -1.078125 L 4.984375 -6.5625 L 5.84375 -6.5625 L 5.84375 0 L 4.65625 0 L 1.75 -5.484375 L 1.75 0 L 0.890625 0 Z M 0.890625 -6.5625 "/>
</symbol>
<symbol overflow="visible" id="glyph0-3">
<path style="stroke:none;" d="M 0.890625 -6.5625 L 1.765625 -6.5625 L 1.765625 -3.875 L 5 -3.875 L 5 -6.5625 L 5.890625 -6.5625 L 5.890625 0 L 5 0 L 5 -3.125 L 1.765625 -3.125 L 1.765625 0 L 0.890625 0 Z M 0.890625 -6.5625 "/>
</symbol>
</g>
</defs>
<g id="surface36297">
<rect x="0" y="0" width="300" height="300" style="fill:rgb(100%,100%,100%);fill-opacity:1;stroke:none;"/>
<path style="fill:none;stroke-width:1.2;stroke-linecap:butt;stroke-linejoin:miter;stroke:rgb(0%,0%,0%);stroke-opacity:1;stroke-miterlimit:10;" d="M 41.074219 103.972656 L 38.164062 112.957031 "/>
<path style="fill:none;stroke-width:1.2;stroke-linecap:butt;stroke-linejoin:miter;stroke:rgb(100%,0%,0%);stroke-opacity:1;stroke-miterlimit:10;" d="M 38.164062 112.957031 L 35.25 121.941406 "/>
<path style="fill:none;stroke-width:1.2;stroke-linecap:butt;stroke-linejoin:miter;stroke:rgb(100%,0%,0%);stroke-opacity:1;stroke-miterlimit:10;" d="M 35.25 121.941406 L 41.574219 128.957031 "/>
<path style="fill:none;stroke-width:1.2;stroke-linecap:butt;stroke-linejoin:miter;stroke:rgb(0%,0%,0%);stroke-opacity:1;stroke-miterlimit:10;" d="M 41.574219 128.957031 L 47.898438 135.972656 "/>
<path style=" stroke:none;fill-rule:nonzero;fill:rgb(100%,100%,100%);fill-opacity:1;" d="M 31.25 116.441406 L 39.25 116.441406 L 39.25 127.441406 L 31.25 127.441406 Z M 31.25 116.441406 "/>
<g style="fill:rgb(100%,0%,0%);fill-opacity:1;">
  <use xlink:href="#glyph0-1" x="31.25" y="125.104492"/>
</g>
<path style="fill:none;stroke-width:1.2;stroke-linecap:butt;stroke-linejoin:miter;stroke:rgb(0%,0%,0%);stroke-opacity:1;stroke-miterlimit:10;" d="M 47.898438 135.972656 L 66.371094 132.03125 "/>
<path style="fill:none;stroke-width:1.2;stroke-linecap:butt;stroke-linejoin:miter;stroke:rgb(0%,0%,0%);stroke-opacity:1;stroke-miterlimit:10;" d="M 50.671875 139.921875 L 65.449219 136.773438 "/>
<path style="fill:none;stroke-width:1.2;stroke-linecap:butt;stroke-linejoin:miter;stroke:rgb(0%,0%,0%);stroke-opacity:1;stroke-miterlimit:10;" d="M 42.070312 153.9375 L 47.898438 135.972656 "/>
<path style="fill:none;stroke-width:1.2;stroke-linecap:butt;stroke-linejoin:miter;stroke:rgb(0%,0%,0%);stroke-opacity:1;stroke-miterlimit:10;" d="M 66.371094 132.03125 L 79.019531 146.0625 "/>
<path style="fill:none;stroke-width:1.2;stroke-linecap:butt;stroke-linejoin:miter;stroke:rgb(0%,0%,0%);stroke-opacity:1;stroke-miterlimit:10;" d="M 79.019531 146.0625 L 73.191406 164.027344 "/>
<path style="fill:none;stroke-width:1.2;stroke-linecap:butt;stroke-linejoin:miter;stroke:rgb(0%,0%,0%);stroke-opacity:1;stroke-miterlimit:10;" d="M 74.207031 146.488281 L 69.546875 160.863281 "/>
<path style="fill:none;stroke-width:1.2;stroke-linecap:butt;stroke-linejoin:miter;stroke:rgb(0%,0%,0%);stroke-opacity:1;stroke-miterlimit:10;" d="M 73.191406 164.027344 L 54.71875 167.96875 "/>
<path style="fill:none;stroke-width:1.2;stroke-linecap:butt;stroke-linejoin:miter;stroke:rgb(0%,0%,0%);stroke-opacity:1;stroke-miterlimit:10;" d="M 73.191406 164.027344 L 85.839844 178.058594 "/>
<path style="fill:none;stroke-width:1.2;stroke-linecap:butt;stroke-linejoin:miter;stroke:rgb(0%,0%,0%);stroke-opacity:1;stroke-miterlimit:10;" d="M 54.71875 167.96875 L 42.070312 153.9375 "/>
<path style="fill:none;stroke-width:1.2;stroke-linecap:butt;stroke-linejoin:miter;stroke:rgb(0%,0%,0%);stroke-opacity:1;stroke-miterlimit:10;" d="M 56.757812 163.589844 L 46.636719 152.367188 "/>
<path style="fill:none;stroke-width:1.2;stroke-linecap:butt;stroke-linejoin:miter;stroke:rgb(0%,0%,0%);stroke-opacity:1;stroke-miterlimit:10;" d="M 83.726562 177.371094 L 80.8125 186.355469 "/>
<path style="fill:none;stroke-width:1.2;stroke-linecap:butt;stroke-linejoin:miter;stroke:rgb(100%,0%,0%);stroke-opacity:1;stroke-miterlimit:10;" d="M 80.8125 186.355469 L 77.902344 195.339844 "/>
<path style="fill:none;stroke-width:1.2;stroke-linecap:butt;stroke-linejoin:miter;stroke:rgb(0%,0%,0%);stroke-opacity:1;stroke-miterlimit:10;" d="M 87.953125 178.742188 L 85.042969 187.726562 "/>
<path style="fill:none;stroke-width:1.2;stroke-linecap:butt;stroke-linejoin:miter;stroke:rgb(100%,0%,0%);stroke-opacity:1;stroke-miterlimit:10;" d="M 85.042969 187.726562 L 82.128906 196.710938 "/>
<path style="fill:none;stroke-width:1.2;stroke-linecap:butt;stroke-linejoin:miter;stroke:rgb(0%,0%,0%);stroke-opacity:1;stroke-miterlimit:10;" d="M 85.839844 178.058594 L 95.078125 176.089844 "/>
<path style="fill:none;stroke-width:1.2;stroke-linecap:butt;stroke-linejoin:miter;stroke:rgb(0%,0%,100%);stroke-opacity:1;stroke-miterlimit:10;" d="M 95.078125 176.089844 L 104.316406 174.121094 "/>
<path style=" stroke:none;fill-rule:nonzero;fill:rgb(100%,100%,100%);fill-opacity:1;" d="M 72.015625 190.527344 L 80.015625 190.527344 L 80.015625 201.527344 L 72.015625 201.527344 Z M 72.015625 190.527344 "/>
<g style="fill:rgb(100%,0%,0%);fill-opacity:1;">
  <use xlink:href="#glyph0-1" x="72.015625" y="199.19043"/>
</g>
<path style="fill:none;stroke-width:1.2;stroke-linecap:butt;stroke-linejoin:miter;stroke:rgb(0%,0%,100%);stroke-opacity:1;stroke-miterlimit:10;" d="M 104.316406 174.121094 L 110.636719 181.132812 "/>
<path style="fill:none;stroke-width:1.2;stroke-linecap:butt;stroke-linejoin:miter;stroke:rgb(0%,0%,0%);stroke-opacity:1;stroke-miterlimit:10;" d="M 110.636719 181.132812 L 116.960938 188.148438 "/>
<path style="fill:none;stroke-width:1.2;stroke-linecap:butt;stroke-linejoin:miter;stroke:rgb(0%,0%,0%);stroke-opacity:1;stroke-miterlimit:10;" d="M 110.140625 156.152344 L 107.226562 165.136719 "/>
<path style="fill:none;stroke-width:1.2;stroke-linecap:butt;stroke-linejoin:miter;stroke:rgb(0%,0%,100%);stroke-opacity:1;stroke-miterlimit:10;" d="M 107.226562 165.136719 L 104.316406 174.121094 "/>
<path style=" stroke:none;fill-rule:nonzero;fill:rgb(100%,100%,100%);fill-opacity:1;" d="M 101.316406 168.621094 L 108.316406 168.621094 L 108.316406 179.621094 L 101.316406 179.621094 Z M 101.316406 168.621094 "/>
<g style="fill:rgb(0%,0%,100%);fill-opacity:1;">
  <use xlink:href="#glyph0-2" x="101.316406" y="177.28418"/>
</g>
<path style="fill:none;stroke-width:1.2;stroke-linecap:butt;stroke-linejoin:miter;stroke:rgb(0%,0%,0%);stroke-opacity:1;stroke-miterlimit:10;" d="M 116.960938 188.148438 L 135.4375 184.210938 "/>
<path style="fill:none;stroke-width:1.2;stroke-linecap:butt;stroke-linejoin:miter;stroke:rgb(0%,0%,0%);stroke-opacity:1;stroke-miterlimit:10;" d="M 135.4375 184.210938 L 141.261719 166.242188 "/>
<path style="fill:none;stroke-width:1.2;stroke-linecap:butt;stroke-linejoin:miter;stroke:rgb(0%,0%,0%);stroke-opacity:1;stroke-miterlimit:10;" d="M 141.261719 166.242188 L 128.613281 152.214844 "/>
<path style="fill:none;stroke-width:1.2;stroke-linecap:butt;stroke-linejoin:miter;stroke:rgb(0%,0%,0%);stroke-opacity:1;stroke-miterlimit:10;" d="M 141.261719 166.242188 L 153.910156 180.269531 "/>
<path style="fill:none;stroke-width:1.2;stroke-linecap:butt;stroke-linejoin:miter;stroke:rgb(0%,0%,0%);stroke-opacity:1;stroke-miterlimit:10;" d="M 147.085938 148.273438 L 141.261719 166.242188 "/>
<path style="fill:none;stroke-width:1.2;stroke-linecap:butt;stroke-linejoin:miter;stroke:rgb(0%,0%,0%);stroke-opacity:1;stroke-miterlimit:10;" d="M 128.613281 152.214844 L 110.140625 156.152344 "/>
<path style="fill:none;stroke-width:1.2;stroke-linecap:butt;stroke-linejoin:miter;stroke:rgb(0%,0%,0%);stroke-opacity:1;stroke-miterlimit:10;" d="M 153.910156 180.269531 L 172.382812 176.332031 "/>
<path style="fill:none;stroke-width:1.2;stroke-linecap:butt;stroke-linejoin:miter;stroke:rgb(0%,0%,0%);stroke-opacity:1;stroke-miterlimit:10;" d="M 172.382812 176.332031 L 175.296875 167.347656 "/>
<path style="fill:none;stroke-width:1.2;stroke-linecap:butt;stroke-linejoin:miter;stroke:rgb(0%,0%,100%);stroke-opacity:1;stroke-miterlimit:10;" d="M 175.296875 167.347656 L 178.207031 158.363281 "/>
<path style="fill:none;stroke-width:1.2;stroke-linecap:butt;stroke-linejoin:miter;stroke:rgb(0%,0%,100%);stroke-opacity:1;stroke-miterlimit:10;" d="M 178.207031 158.363281 L 171.882812 151.351562 "/>
<path style="fill:none;stroke-width:1.2;stroke-linecap:butt;stroke-linejoin:miter;stroke:rgb(0%,0%,0%);stroke-opacity:1;stroke-miterlimit:10;" d="M 171.882812 151.351562 L 165.5625 144.335938 "/>
<path style="fill:none;stroke-width:1.2;stroke-linecap:butt;stroke-linejoin:miter;stroke:rgb(0%,0%,100%);stroke-opacity:1;stroke-miterlimit:10;" d="M 178.207031 158.363281 L 187.445312 156.394531 "/>
<path style="fill:none;stroke-width:1.2;stroke-linecap:butt;stroke-linejoin:miter;stroke:rgb(0%,0%,0%);stroke-opacity:1;stroke-miterlimit:10;" d="M 187.445312 156.394531 L 196.683594 154.425781 "/>
<path style=" stroke:none;fill-rule:nonzero;fill:rgb(100%,100%,100%);fill-opacity:1;" d="M 175.207031 152.863281 L 182.207031 152.863281 L 182.207031 163.863281 L 175.207031 163.863281 Z M 175.207031 152.863281 "/>
<g style="fill:rgb(0%,0%,100%);fill-opacity:1;">
  <use xlink:href="#glyph0-2" x="175.207031" y="161.526367"/>
</g>
<path style="fill:none;stroke-width:1.2;stroke-linecap:butt;stroke-linejoin:miter;stroke:rgb(0%,0%,0%);stroke-opacity:1;stroke-miterlimit:10;" d="M 165.5625 144.335938 L 147.085938 148.273438 "/>
<path style="fill:none;stroke-width:1.2;stroke-linecap:butt;stroke-linejoin:miter;stroke:rgb(0%,0%,0%);stroke-opacity:1;stroke-miterlimit:10;" d="M 198.796875 155.109375 L 201.707031 146.128906 "/>
<path style="fill:none;stroke-width:1.2;stroke-linecap:butt;stroke-linejoin:miter;stroke:rgb(100%,0%,0%);stroke-opacity:1;stroke-miterlimit:10;" d="M 201.707031 146.128906 L 204.621094 137.144531 "/>
<path style="fill:none;stroke-width:1.2;stroke-linecap:butt;stroke-linejoin:miter;stroke:rgb(0%,0%,0%);stroke-opacity:1;stroke-miterlimit:10;" d="M 194.566406 153.742188 L 197.480469 144.757812 "/>
<path style="fill:none;stroke-width:1.2;stroke-linecap:butt;stroke-linejoin:miter;stroke:rgb(100%,0%,0%);stroke-opacity:1;stroke-miterlimit:10;" d="M 197.480469 144.757812 L 200.394531 135.773438 "/>
<path style="fill:none;stroke-width:1.2;stroke-linecap:butt;stroke-linejoin:miter;stroke:rgb(0%,0%,0%);stroke-opacity:1;stroke-miterlimit:10;" d="M 196.683594 154.425781 L 203.003906 161.441406 "/>
<path style="fill:none;stroke-width:1.2;stroke-linecap:butt;stroke-linejoin:miter;stroke:rgb(0%,0%,100%);stroke-opacity:1;stroke-miterlimit:10;" d="M 203.003906 161.441406 L 209.328125 168.453125 "/>
<path style=" stroke:none;fill-rule:nonzero;fill:rgb(100%,100%,100%);fill-opacity:1;" d="M 198.507812 130.957031 L 206.507812 130.957031 L 206.507812 141.957031 L 198.507812 141.957031 Z M 198.507812 130.957031 "/>
<g style="fill:rgb(100%,0%,0%);fill-opacity:1;">
  <use xlink:href="#glyph0-1" x="198.507812" y="139.620117"/>
</g>
<path style="fill:none;stroke-width:1.2;stroke-linecap:butt;stroke-linejoin:miter;stroke:rgb(0%,0%,100%);stroke-opacity:1;stroke-miterlimit:10;" d="M 209.328125 168.453125 L 218.566406 166.484375 "/>
<path style="fill:none;stroke-width:1.2;stroke-linecap:butt;stroke-linejoin:miter;stroke:rgb(0%,0%,0%);stroke-opacity:1;stroke-miterlimit:10;" d="M 218.566406 166.484375 L 227.804688 164.515625 "/>
<path style=" stroke:none;fill-rule:nonzero;fill:rgb(100%,100%,100%);fill-opacity:1;" d="M 202.328125 162.953125 L 216.328125 162.953125 L 216.328125 173.953125 L 202.328125 173.953125 Z M 202.328125 162.953125 "/>
<g style="fill:rgb(0%,0%,100%);fill-opacity:1;">
  <use xlink:href="#glyph0-2" x="202.328125" y="171.616211"/>
  <use xlink:href="#glyph0-3" x="209.305664" y="171.616211"/>
</g>
<path style="fill:none;stroke-width:1.2;stroke-linecap:butt;stroke-linejoin:miter;stroke:rgb(0%,0%,0%);stroke-opacity:1;stroke-miterlimit:10;" d="M 227.804688 164.515625 L 240.449219 178.546875 "/>
<path style="fill:none;stroke-width:1.2;stroke-linecap:butt;stroke-linejoin:miter;stroke:rgb(0%,0%,0%);stroke-opacity:1;stroke-miterlimit:10;" d="M 232.367188 162.941406 L 242.488281 174.167969 "/>
<path style="fill:none;stroke-width:1.2;stroke-linecap:butt;stroke-linejoin:miter;stroke:rgb(0%,0%,0%);stroke-opacity:1;stroke-miterlimit:10;" d="M 233.628906 146.546875 L 227.804688 164.515625 "/>
<path style="fill:none;stroke-width:1.2;stroke-linecap:butt;stroke-linejoin:miter;stroke:rgb(0%,0%,0%);stroke-opacity:1;stroke-miterlimit:10;" d="M 240.449219 178.546875 L 258.925781 174.605469 "/>
<path style="fill:none;stroke-width:1.2;stroke-linecap:butt;stroke-linejoin:miter;stroke:rgb(0%,0%,0%);stroke-opacity:1;stroke-miterlimit:10;" d="M 258.925781 174.605469 L 264.75 156.640625 "/>
<path style="fill:none;stroke-width:1.2;stroke-linecap:butt;stroke-linejoin:miter;stroke:rgb(0%,0%,0%);stroke-opacity:1;stroke-miterlimit:10;" d="M 255.277344 171.4375 L 259.941406 157.066406 "/>
<path style="fill:none;stroke-width:1.2;stroke-linecap:butt;stroke-linejoin:miter;stroke:rgb(0%,0%,0%);stroke-opacity:1;stroke-miterlimit:10;" d="M 264.75 156.640625 L 252.101562 142.609375 "/>
<path style="fill:none;stroke-width:1.2;stroke-linecap:butt;stroke-linejoin:miter;stroke:rgb(0%,0%,0%);stroke-opacity:1;stroke-miterlimit:10;" d="M 252.101562 142.609375 L 233.628906 146.546875 "/>
<path style="fill:none;stroke-width:1.2;stroke-linecap:butt;stroke-linejoin:miter;stroke:rgb(0%,0%,0%);stroke-opacity:1;stroke-miterlimit:10;" d="M 251.179688 147.351562 L 236.402344 150.5 "/>
<path style="fill:none;stroke-width:1.2;stroke-linecap:butt;stroke-linejoin:miter;stroke:rgb(0%,0%,0%);stroke-opacity:1;stroke-miterlimit:10;" d="M 252.101562 142.609375 L 257.929688 124.640625 "/>
<path style="fill:none;stroke-width:1.2;stroke-linecap:butt;stroke-linejoin:miter;stroke:rgb(0%,0%,0%);stroke-opacity:1;stroke-miterlimit:10;" d="M 257.929688 124.640625 L 260.839844 115.65625 "/>
<path style="fill:none;stroke-width:1.2;stroke-linecap:butt;stroke-linejoin:miter;stroke:rgb(0%,0%,100%);stroke-opacity:1;stroke-miterlimit:10;" d="M 260.839844 115.65625 L 263.753906 106.675781 "/>
<path style="fill:none;stroke-width:1.2;stroke-linecap:butt;stroke-linejoin:miter;stroke:rgb(0%,0%,0%);stroke-opacity:1;stroke-miterlimit:10;" d="M 262.738281 124.214844 L 265.070312 117.027344 "/>
<path style="fill:none;stroke-width:1.2;stroke-linecap:butt;stroke-linejoin:miter;stroke:rgb(0%,0%,100%);stroke-opacity:1;stroke-miterlimit:10;" d="M 265.070312 117.027344 L 267.398438 109.839844 "/>
<path style="fill:none;stroke-width:1.2;stroke-linecap:butt;stroke-linejoin:miter;stroke:rgb(0%,0%,0%);stroke-opacity:1;stroke-miterlimit:10;" d="M 254.28125 121.472656 L 256.613281 114.285156 "/>
<path style="fill:none;stroke-width:1.2;stroke-linecap:butt;stroke-linejoin:miter;stroke:rgb(0%,0%,100%);stroke-opacity:1;stroke-miterlimit:10;" d="M 256.613281 114.285156 L 258.941406 107.101562 "/>
<path style=" stroke:none;fill-rule:nonzero;fill:rgb(100%,100%,100%);fill-opacity:1;" d="M 260.753906 101.175781 L 267.753906 101.175781 L 267.753906 112.175781 L 260.753906 112.175781 Z M 260.753906 101.175781 "/>
<g style="fill:rgb(0%,0%,100%);fill-opacity:1;">
  <use xlink:href="#glyph0-2" x="260.753906" y="109.838867"/>
</g>
</g>
</svg>

<svg xmlns="http://www.w3.org/2000/svg" xmlns:xlink="http://www.w3.org/1999/xlink" width="300pt" height="300pt" viewBox="0 0 300 300"><defs><symbol overflow="visible"><path d="M.453 1.594v-7.938h4.5v7.938zm.5-.5h3.5v-6.938h-3.5zm0 0"/></symbol><symbol overflow="visible" id="a"><path d="M3.547-5.953c-.65 0-1.164.242-1.547.72-.375.48-.563 1.13-.563 1.952 0 .835.188 1.49.563 1.967.383.48.898.72 1.547.72.644 0 1.156-.24 1.53-.72.376-.476.564-1.132.564-1.968 0-.822-.187-1.474-.562-1.954-.375-.477-.887-.72-1.53-.72zm0-.734c.914 0 1.648.312 2.203.937.55.617.828 1.438.828 2.47 0 1.042-.277 1.87-.828 2.483-.555.617-1.29.922-2.203.922-.93 0-1.668-.305-2.22-.922C.774-1.41.5-2.237.5-3.28c0-1.033.273-1.853.828-2.47.55-.625 1.29-.938 2.22-.938zm0 0"/></symbol><symbol overflow="visible" id="b"><path d="M.89-6.563H2.08l2.906 5.485v-5.484h.86V0H4.656L1.75-5.484V0H.89zm0 0"/></symbol><symbol overflow="visible" id="c"><path d="M.89-6.563h.876v2.688H5v-2.688h.89V0H5v-3.125H1.766V0H.89zm0 0"/></symbol></defs><g><path fill="#fff" d="M0 0h300v300H0z"/><path d="M41.074 103.973l-2.91 8.984" stroke-width="1.2" stroke="#000" stroke-miterlimit="10" fill="none"/><path d="M38.164 112.957l-2.914 8.984M35.25 121.94l6.324 7.017" stroke-width="1.2" stroke="#f00" stroke-miterlimit="10" fill="none"/><path d="M41.574 128.957l6.324 7.016" stroke-width="1.2" stroke="#000" stroke-miterlimit="10" fill="none"/><path d="M31.25 116.44h8v11h-8zm0 0" fill="#fff"/><use xlink:href="#a" x="31.25" y="125.104" fill="#f00"/><path d="M47.898 135.973l18.473-3.942M50.672 139.922l14.777-3.15M42.07 153.938l5.828-17.965M66.37 132.03l12.65 14.032M79.02 146.063l-5.83 17.964M74.207 146.488l-4.66 14.375M73.19 164.027l-18.47 3.942M73.19 164.027l12.65 14.032M54.72 167.97l-12.65-14.032M56.758 163.59l-10.12-11.223M83.727 177.37l-2.915 8.985" stroke-width="1.2" stroke="#000" stroke-miterlimit="10" fill="none"/><path d="M80.813 186.355l-2.91 8.985" stroke-width="1.2" stroke="#f00" stroke-miterlimit="10" fill="none"/><path d="M87.953 178.742l-2.91 8.985" stroke-width="1.2" stroke="#000" stroke-miterlimit="10" fill="none"/><path d="M85.043 187.727l-2.914 8.984" stroke-width="1.2" stroke="#f00" stroke-miterlimit="10" fill="none"/><path d="M85.84 178.06l9.238-1.97" stroke-width="1.2" stroke="#000" stroke-miterlimit="10" fill="none"/><path d="M95.078 176.09l9.238-1.97" stroke-width="1.2" stroke="#00f" stroke-miterlimit="10" fill="none"/><path d="M72.016 190.527h8v11h-8zm0 0" fill="#fff"/><use xlink:href="#a" x="72.016" y="199.19" fill="#f00"/><path d="M104.316 174.12l6.32 7.013" stroke-width="1.2" stroke="#00f" stroke-miterlimit="10" fill="none"/><path d="M110.637 181.133l6.324 7.015M110.14 156.152l-2.913 8.985" stroke-width="1.2" stroke="#000" stroke-miterlimit="10" fill="none"/><path d="M107.227 165.137l-2.91 8.984" stroke-width="1.2" stroke="#00f" stroke-miterlimit="10" fill="none"/><path d="M101.316 168.62h7v11h-7zm0 0" fill="#fff"/><use xlink:href="#b" x="101.316" y="177.284" fill="#00f"/><path d="M116.96 188.148l18.478-3.937M135.438 184.21l5.824-17.968M141.262 166.242l-12.65-14.027M141.262 166.242l12.648 14.028M147.086 148.273l-5.824 17.97M128.613 152.215l-18.472 3.937M153.91 180.27l18.473-3.938M172.383 176.332l2.914-8.984" stroke-width="1.2" stroke="#000" stroke-miterlimit="10" fill="none"/><path d="M175.297 167.348l2.91-8.985M178.207 158.363l-6.324-7.01" stroke-width="1.2" stroke="#00f" stroke-miterlimit="10" fill="none"/><path d="M171.883 151.352l-6.32-7.016" stroke-width="1.2" stroke="#000" stroke-miterlimit="10" fill="none"/><path d="M178.207 158.363l9.238-1.968" stroke-width="1.2" stroke="#00f" stroke-miterlimit="10" fill="none"/><path d="M187.445 156.395l9.24-1.97" stroke-width="1.2" stroke="#000" stroke-miterlimit="10" fill="none"/><path d="M175.207 152.863h7v11h-7zm0 0" fill="#fff"/><use xlink:href="#b" x="175.207" y="161.526" fill="#00f"/><path d="M165.563 144.336l-18.477 3.937M198.797 155.11l2.91-8.98" stroke-width="1.2" stroke="#000" stroke-miterlimit="10" fill="none"/><path d="M201.707 146.13l2.914-8.985" stroke-width="1.2" stroke="#f00" stroke-miterlimit="10" fill="none"/><path d="M194.566 153.742l2.914-8.984" stroke-width="1.2" stroke="#000" stroke-miterlimit="10" fill="none"/><path d="M197.48 144.758l2.915-8.985" stroke-width="1.2" stroke="#f00" stroke-miterlimit="10" fill="none"/><path d="M196.684 154.426l6.32 7.015" stroke-width="1.2" stroke="#000" stroke-miterlimit="10" fill="none"/><path d="M203.004 161.44l6.324 7.013" stroke-width="1.2" stroke="#00f" stroke-miterlimit="10" fill="none"/><path d="M198.508 130.957h8v11h-8zm0 0" fill="#fff"/><use xlink:href="#a" x="198.508" y="139.62" fill="#f00"/><path d="M209.328 168.453l9.238-1.97" stroke-width="1.2" stroke="#00f" stroke-miterlimit="10" fill="none"/><path d="M218.566 166.484l9.24-1.968" stroke-width="1.2" stroke="#000" stroke-miterlimit="10" fill="none"/><path d="M202.328 162.953h14v11h-14zm0 0" fill="#fff"/><g fill="#00f"><use xlink:href="#b" x="202.328" y="171.616"/><use xlink:href="#c" x="209.306" y="171.616"/></g><path d="M227.805 164.516l12.644 14.03M232.367 162.94l10.12 11.228M233.63 146.547l-5.825 17.97M240.45 178.547l18.476-3.942M258.926 174.605l5.824-17.964M255.277 171.438l4.664-14.372M264.75 156.64l-12.648-14.03M252.102 142.61l-18.473 3.937M251.18 147.352l-14.778 3.148M252.102 142.61l5.828-17.97M257.93 124.64l2.91-8.984" stroke-width="1.2" stroke="#000" stroke-miterlimit="10" fill="none"/><path d="M260.84 115.656l2.914-8.98" stroke-width="1.2" stroke="#00f" stroke-miterlimit="10" fill="none"/><path d="M262.738 124.215l2.332-7.188" stroke-width="1.2" stroke="#000" stroke-miterlimit="10" fill="none"/><path d="M265.07 117.027l2.328-7.187" stroke-width="1.2" stroke="#00f" stroke-miterlimit="10" fill="none"/><path d="M254.28 121.473l2.333-7.188" stroke-width="1.2" stroke="#000" stroke-miterlimit="10" fill="none"/><path d="M256.613 114.285l2.328-7.183" stroke-width="1.2" stroke="#00f" stroke-miterlimit="10" fill="none"/><path d="M260.754 101.176h7v11h-7zm0 0" fill="#fff"/><use xlink:href="#b" x="260.754" y="109.839" fill="#00f"/></g></svg>
